X:473
T: Fengshou huakai xiang wanli
N: C2092
O: China,Shanxi Qinyuan
S: I, 286]
R: Wuge Yangge Shieryuehuadiao]
M: 2/4
L: 1/16
K: C
c2BAG4 | ABAGE4 | egedeged | cdBAG4 |
c2GAc2c2 | A2eBA2G2 | ABAGAGED | C4C4 |
c4e2B2 | A2BAG2E2 | ABAGA4 | c3ED4 |
c8 | z2e2d2e2 | c3dc2B2 | ABAGA4 | c2E4D2 | C8 |
egedc4 | egedc4 | ezdzezdz | g2BAG2E2 |
z2c4BA | G4 | ABAGA4 | c2E4D2 | C8

@@@ Tune index: 7028
